X:1
T:Title
%%score 1 2 3 4
L:1/8
M:4/4
K:Bb
V:1 treble nm="Trumpet, Staff"
V:2 treble nm="French Horn, Staff-1"
V:3 bass nm="Trombone, Staff-2"
V:4 bass nm="Tuba, Staff-3"
V:1
 D2 G2 A2 B2 | c2 d2- d/ z/ c B2 | d2 c2 B2 A2 | B2 G6 | d2 f2 f2 f2 | g2 f2- f/ z/ =e d2 | %6
w: By~Traditional~Italian * * *||||||
 f2 e2 d2 c2 | d2 B6 | d2 e2- e/ z/ d d2 | d2 e2- e/ z/ d d2 | d2 c2 B2 A2 | B2 G6 |] %12
w: ||||||
V:2
 B,2 D2 D2 D2 | F2 F2- F/ z/ E D2 | F2 F2 D2 D2 | D2 D6 | G2 A2 F2 F2 | B2 A2- A/ z/ G F2 | %6
w: With~ sanc ti fied~|fes ti * vi ty~|We~ bless~ the~ Babe~|Je su;~|For~ so~ on~ his~|Na ti * vi ty~|
 F2 B2 F2 F2 | F2 F6 | F2 G2- G/ z/ F F2 | G2 G2- G/ z/ ^F F2 | G2 G2 D2 D2 | D2 D6 |] %12
w: Be ho veth~ as~|to~ do,~|Who~ bring~ * to~ him~|Who~ sing~ * to~ him~|A~ Ca rol,~ old~|or~ new.~|
V:3
 G,2 G,2 ^F,2 G,2 | A,2 B,2- B,/ z/ C D2 | B,2 A,2 G,2 G,2 | ^F,2 G,6 | G,2[K:treble] C2 C2 D2 | %5
 D2 D2- D/ z/ =E F2 | D2[K:bass] B,2 B,2 B,2 | A,2 B,6 | B,2 B,2- B,/ z/ B, B,2 | %9
 B,2 C2- C/ z/ A, A,2 | B,2 G,2 G,2 G,2 | ^F,2 G,6 |] %12
V:4
 G,,2 B,,2 D,2 G,2 | A,2 B,2 B,,2 B,,2 | B,2 F,2 G,2 D,2 | D,2 G,,6 | G,2 F,2 A,2 B,2 | %5
 G,2 D2 D,2 D,2 | B,2 G,2 B,2 F,2 | F,2 B,,6 | B,2 E,2- E,/ z/ B, B,2 | G,2 C,2- C,/ z/ D, D,2 | %10
 G,2 E,2 G,2 D,2 | D,2 G,,6 |] %12

